report_00007_2020-12-11T15:55:29.892Z/network-server-latency/comparison/sorted/6_vs_7.svg

<svg width="640" height="500" xmlns="http://www.w3.org/2000/svg" xmlns:xlink="http://www.w3.org/1999/xlink"><path fill="#fff" d="M0 0h640v500H0z"/><defs><path id="d" stroke-width=".222" stroke="currentColor" d="M-1-1h2v2h-2z"/><path id="b" stroke-width=".222" stroke="currentColor" d="M0-1.33l-1.33 2h2.66z"/><path id="f" stroke-width=".222" stroke="currentColor" d="M0 1.33L1.265.411.782-1.067l-1.564-.009-.483 1.487z"/><use xlink:href="#b" id="c" stroke="currentColor" transform="rotate(180)"/><use xlink:href="#d" id="e" stroke="currentColor" transform="rotate(45)"/><circle id="a" stroke-width=".222" stroke="currentColor" cx="0" cy="0" r="1"/></defs><g fill="none" color="#000" stroke="currentColor"><path stroke="#000" d="M37.3 426.3h9m568.7 0h-9"/><text transform="translate(29 430.2)" stroke="none" fill="#000" font-family="Arial" font-size="12" text-anchor="end"><tspan>3</tspan></text></g><g fill="none" color="#000" stroke="currentColor"><path stroke="#000" d="M37.3 347.6h9m568.7 0h-9"/><text transform="translate(29 351.5)" stroke="none" fill="#000" font-family="Arial" font-size="12" text-anchor="end"><tspan>4</tspan></text></g><g fill="none" color="#000" stroke="currentColor"><path stroke="#000" d="M37.3 269h9m568.7 0h-9"/><text transform="translate(29 272.9)" stroke="none" fill="#000" font-family="Arial" font-size="12" text-anchor="end"><tspan>5</tspan></text></g><g fill="none" color="#000" stroke="currentColor"><path stroke="#000" d="M37.3 190.3h9m568.7 0h-9"/><text transform="translate(29 194.2)" stroke="none" fill="#000" font-family="Arial" font-size="12" text-anchor="end"><tspan>6</tspan></text></g><g fill="none" color="#000" stroke="currentColor"><path stroke="#000" d="M37.3 111.6h9m568.7 0h-9"/><text transform="translate(29 115.5)" stroke="none" fill="#000" font-family="Arial" font-size="12" text-anchor="end"><tspan>7</tspan></text></g><g fill="none" color="#000" stroke="currentColor"><path stroke="#000" d="M37.3 32.9h9m568.7 0h-9"/><text transform="translate(29 36.8)" stroke="none" fill="#000" font-family="Arial" font-size="12" text-anchor="end"><tspan>8</tspan></text></g><g fill="none" color="#000" stroke="currentColor"><path stroke="#000" d="M37.3 428v-9m0-400.9v9"/><text transform="translate(37.3 449.9)" stroke="none" fill="#000" font-family="Arial" font-size="12" text-anchor="middle"><tspan>0</tspan></text></g><g fill="none" color="#000" stroke="currentColor"><path stroke="#000" d="M95.7 428v-9m0-400.9v9"/><text transform="translate(95.7 449.9)" stroke="none" fill="#000" font-family="Arial" font-size="12" text-anchor="middle"><tspan>10</tspan></text></g><g fill="none" color="#000" stroke="currentColor"><path stroke="#000" d="M154 428v-9m0-400.9v9"/><text transform="translate(154 449.9)" stroke="none" fill="#000" font-family="Arial" font-size="12" text-anchor="middle"><tspan>20</tspan></text></g><g fill="none" color="#000" stroke="currentColor"><path stroke="#000" d="M212.4 428v-9m0-400.9v9"/><text transform="translate(212.4 449.9)" stroke="none" fill="#000" font-family="Arial" font-size="12" text-anchor="middle"><tspan>30</tspan></text></g><g fill="none" color="#000" stroke="currentColor"><path stroke="#000" d="M270.7 428v-9m0-400.9v9"/><text transform="translate(270.7 449.9)" stroke="none" fill="#000" font-family="Arial" font-size="12" text-anchor="middle"><tspan>40</tspan></text></g><g fill="none" color="#000" stroke="currentColor"><path stroke="#000" d="M329.1 428v-9m0-400.9v9"/><text transform="translate(329.1 449.9)" stroke="none" fill="#000" font-family="Arial" font-size="12" text-anchor="middle"><tspan>50</tspan></text></g><g fill="none" color="#000" stroke="currentColor"><path stroke="#000" d="M387.4 428v-9m0-400.9v9"/><text transform="translate(387.4 449.9)" stroke="none" fill="#000" font-family="Arial" font-size="12" text-anchor="middle"><tspan>60</tspan></text></g><g fill="none" color="#000" stroke="currentColor"><path stroke="#000" d="M445.8 428v-9m0-400.9v9"/><text transform="translate(445.8 449.9)" stroke="none" fill="#000" font-family="Arial" font-size="12" text-anchor="middle"><tspan>70</tspan></text></g><g fill="none" color="#000" stroke="currentColor"><path stroke="#000" d="M504.1 428v-9m0-400.9v9"/><text transform="translate(504.1 449.9)" stroke="none" fill="#000" font-family="Arial" font-size="12" text-anchor="middle"><tspan>80</tspan></text></g><g fill="none" color="#000" stroke="currentColor"><path stroke="#000" d="M562.5 428v-9m0-400.9v9"/><text transform="translate(562.5 449.9)" stroke="none" fill="#000" font-family="Arial" font-size="12" text-anchor="middle"><tspan>90</tspan></text></g><path stroke="#000" d="M37.3 18.1V428H615V18.1H37.3z" fill="none" color="#000"/><text transform="translate(425.4 467.9)" stroke="none" fill="#000" font-family="Arial" font-size="12" text-anchor="end" color="#000"><tspan>pages+cached+noexternal+nofonts</tspan></text><path stroke="#9400D3" d="M433.7 464h42.2M37.3 420.1l5.8-31.8 5.9-1.8 5.8-.6 5.8-1.7 5.9-8 5.8-1.3 5.8-1 5.9-.3 5.8-1 5.9-2.1 5.8-.8 5.8-.3 5.9-1.5 5.8-1.2 5.8-2.9 5.9-.5 5.8-4.3 5.8-1 5.9-.5 5.8-.4 5.8-1.5 5.9-.2 5.8-.7 5.8-.2 5.9-.1 5.8-.6 5.9-3.5 5.8-.2h5.8l5.9-.5 5.8-.1 5.8-.9 5.9-.8 5.8-.5 5.8-2.1 5.9-.7 5.8-.4h5.8l5.9-.2 5.8-.6 5.8-.2 5.9-.5 5.8-.2 5.9-1.5 5.8-.3 5.8-.4 5.9-.9 5.8-.1 5.8-.9 5.9-.3 5.8-.9 5.8-.3 5.9-1 5.8-.2h5.8l5.9-.7 5.8-.5 5.9-2 5.8-1 5.8-.6 5.9-1 5.8-2.8 5.8-.7 5.9-1.3 5.8-.7 5.8-.1 5.9-1.4 5.8-.3 5.8-1.1 5.9-.9 5.8-.9 5.8-.2 5.9-1.6 5.8-.2h5.9l5.8-.8 5.8-.2 5.9-.4 5.8-1.2 5.8-.1 5.9-.3 5.8-1 5.8-.4 5.9-2.4 5.8-.2 5.8-.3 5.9-3.9 5.8-4.3 5.8-.1 5.9-3 5.8-.1 5.9-.5 5.8-2.7 5.8-4.8 5.9-5.4 5.8-6.8 5.8-2.7 5.9-12.7 5.8-4.1" fill="none" color="#000"/><text transform="translate(425.4 485.9)" stroke="none" fill="#000" font-family="Arial" font-size="12" text-anchor="end" color="#000"><tspan>pages+cached+noexternal+nosvg</tspan></text><path stroke="#009E73" d="M433.7 482h42.2M37.3 350.6l5.8-49.1 5.9-14.1 5.8-1.1 5.8-.5 5.9-2.7 5.8-10.2 5.8-3.9 5.9-1.1 5.8-1.6 5.9-.4 5.8-7.4 5.8-3.2 5.9-2.2 5.8-4.7 5.8-1.7 5.9-1.4 5.8-5.3 5.8-.6 5.9-.1 5.8-.6 5.8-4.2 5.9-3.7 5.8-1 5.8-1.7 5.9-.3 5.8-.4 5.9-1.1 5.8-.4 5.8-1.9 5.9-.6 5.8-.5 5.8-1.8 5.9-.3h5.8l5.8-2.7h5.9l5.8-4.8 5.8-.1 5.9-.8 5.8-1.1 5.8-1.5 5.9-1.7 5.8-1.3 5.9-1.2 5.8-1.1 5.8-.1 5.9-2.3 5.8-1.7 5.8-.6 5.9-1.6 5.8-.3 5.8-.2 5.9-2 5.8-.4 5.8-4.4h5.9l5.8-.8 5.9-.1 5.8-.2 5.8-.3 5.9-3.5 5.8-2.9 5.8-1.1 5.9-.6 5.8-2.3 5.8-2.1 5.9-.2 5.8-1.8 5.8-1.5 5.9-3.2 5.8-.9 5.8-1 5.9-.3 5.8-1.4 5.9-9.9 5.8-.1 5.8-.1 5.9-.3 5.8-1 5.8-1.5 5.9-1.9 5.8-3.7 5.8-1.8 5.9-2 5.8-2.4 5.8-7.5 5.9-7.6 5.8-3.9 5.8-5.3 5.9-10.2 5.8-2.4 5.9-5.8L580 96l5.8-5 5.9-2.9 5.8-19.9 5.8-8.5 5.9-.6L615 26" fill="none" color="#000"/><g fill="none" color="#000" stroke="currentColor"><path stroke="#000" d="M37.3 18.1V428H615V18.1H37.3z"/></g></svg>

<?xml version="1.0" encoding="utf-8"  standalone="no"?>
<svg 
 width="640" height="500"
 viewBox="0 0 640 500"
 xmlns="http://www.w3.org/2000/svg"
 xmlns:xlink="http://www.w3.org/1999/xlink"
>

<title>Gnuplot</title>
<desc>Produced by GNUPLOT 5.4 patchlevel 0 </desc>

<g id="gnuplot_canvas">

<rect x="0" y="0" width="640" height="500" fill="#ffffff"/>
<defs>

	<circle id='gpDot' r='0.5' stroke-width='0.5' stroke='currentColor'/>
	<path id='gpPt0' stroke-width='0.222' stroke='currentColor' d='M-1,0 h2 M0,-1 v2'/>
	<path id='gpPt1' stroke-width='0.222' stroke='currentColor' d='M-1,-1 L1,1 M1,-1 L-1,1'/>
	<path id='gpPt2' stroke-width='0.222' stroke='currentColor' d='M-1,0 L1,0 M0,-1 L0,1 M-1,-1 L1,1 M-1,1 L1,-1'/>
	<rect id='gpPt3' stroke-width='0.222' stroke='currentColor' x='-1' y='-1' width='2' height='2'/>
	<rect id='gpPt4' stroke-width='0.222' stroke='currentColor' fill='currentColor' x='-1' y='-1' width='2' height='2'/>
	<circle id='gpPt5' stroke-width='0.222' stroke='currentColor' cx='0' cy='0' r='1'/>
	<use xlink:href='#gpPt5' id='gpPt6' fill='currentColor' stroke='none'/>
	<path id='gpPt7' stroke-width='0.222' stroke='currentColor' d='M0,-1.33 L-1.33,0.67 L1.33,0.67 z'/>
	<use xlink:href='#gpPt7' id='gpPt8' fill='currentColor' stroke='none'/>
	<use xlink:href='#gpPt7' id='gpPt9' stroke='currentColor' transform='rotate(180)'/>
	<use xlink:href='#gpPt9' id='gpPt10' fill='currentColor' stroke='none'/>
	<use xlink:href='#gpPt3' id='gpPt11' stroke='currentColor' transform='rotate(45)'/>
	<use xlink:href='#gpPt11' id='gpPt12' fill='currentColor' stroke='none'/>
	<path id='gpPt13' stroke-width='0.222' stroke='currentColor' d='M0,1.330 L1.265,0.411 L0.782,-1.067 L-0.782,-1.076 L-1.265,0.411 z'/>
	<use xlink:href='#gpPt13' id='gpPt14' fill='currentColor' stroke='none'/>
	<filter id='textbox' filterUnits='objectBoundingBox' x='0' y='0' height='1' width='1'>
	  <feFlood flood-color='#FFFFFF' flood-opacity='1' result='bgnd'/>
	  <feComposite in='SourceGraphic' in2='bgnd' operator='atop'/>
	</filter>
	<filter id='greybox' filterUnits='objectBoundingBox' x='0' y='0' height='1' width='1'>
	  <feFlood flood-color='lightgrey' flood-opacity='1' result='grey'/>
	  <feComposite in='SourceGraphic' in2='grey' operator='atop'/>
	</filter>
</defs>
<g fill="none" color="#FFFFFF" stroke="black" stroke-width="1.00" stroke-linecap="butt" stroke-linejoin="miter">
</g>
<g fill="none" color="black" stroke="currentColor" stroke-width="1.00" stroke-linecap="butt" stroke-linejoin="miter">
	<path stroke='black'  d='M37.3,426.3 L46.3,426.3 M615.0,426.3 L606.0,426.3  '/>	<g transform="translate(29.0,430.2)" stroke="none" fill="black" font-family="Arial" font-size="12.00"  text-anchor="end">
		<text><tspan font-family="Arial" > 3</tspan></text>
	</g>
</g>
<g fill="none" color="black" stroke="currentColor" stroke-width="1.00" stroke-linecap="butt" stroke-linejoin="miter">
	<path stroke='black'  d='M37.3,347.6 L46.3,347.6 M615.0,347.6 L606.0,347.6  '/>	<g transform="translate(29.0,351.5)" stroke="none" fill="black" font-family="Arial" font-size="12.00"  text-anchor="end">
		<text><tspan font-family="Arial" > 4</tspan></text>
	</g>
</g>
<g fill="none" color="black" stroke="currentColor" stroke-width="1.00" stroke-linecap="butt" stroke-linejoin="miter">
	<path stroke='black'  d='M37.3,269.0 L46.3,269.0 M615.0,269.0 L606.0,269.0  '/>	<g transform="translate(29.0,272.9)" stroke="none" fill="black" font-family="Arial" font-size="12.00"  text-anchor="end">
		<text><tspan font-family="Arial" > 5</tspan></text>
	</g>
</g>
<g fill="none" color="black" stroke="currentColor" stroke-width="1.00" stroke-linecap="butt" stroke-linejoin="miter">
	<path stroke='black'  d='M37.3,190.3 L46.3,190.3 M615.0,190.3 L606.0,190.3  '/>	<g transform="translate(29.0,194.2)" stroke="none" fill="black" font-family="Arial" font-size="12.00"  text-anchor="end">
		<text><tspan font-family="Arial" > 6</tspan></text>
	</g>
</g>
<g fill="none" color="black" stroke="currentColor" stroke-width="1.00" stroke-linecap="butt" stroke-linejoin="miter">
	<path stroke='black'  d='M37.3,111.6 L46.3,111.6 M615.0,111.6 L606.0,111.6  '/>	<g transform="translate(29.0,115.5)" stroke="none" fill="black" font-family="Arial" font-size="12.00"  text-anchor="end">
		<text><tspan font-family="Arial" > 7</tspan></text>
	</g>
</g>
<g fill="none" color="black" stroke="currentColor" stroke-width="1.00" stroke-linecap="butt" stroke-linejoin="miter">
	<path stroke='black'  d='M37.3,32.9 L46.3,32.9 M615.0,32.9 L606.0,32.9  '/>	<g transform="translate(29.0,36.8)" stroke="none" fill="black" font-family="Arial" font-size="12.00"  text-anchor="end">
		<text><tspan font-family="Arial" > 8</tspan></text>
	</g>
</g>
<g fill="none" color="black" stroke="currentColor" stroke-width="1.00" stroke-linecap="butt" stroke-linejoin="miter">
	<path stroke='black'  d='M37.3,428.0 L37.3,419.0 M37.3,18.1 L37.3,27.1  '/>	<g transform="translate(37.3,449.9)" stroke="none" fill="black" font-family="Arial" font-size="12.00"  text-anchor="middle">
		<text><tspan font-family="Arial" > 0</tspan></text>
	</g>
</g>
<g fill="none" color="black" stroke="currentColor" stroke-width="1.00" stroke-linecap="butt" stroke-linejoin="miter">
	<path stroke='black'  d='M95.7,428.0 L95.7,419.0 M95.7,18.1 L95.7,27.1  '/>	<g transform="translate(95.7,449.9)" stroke="none" fill="black" font-family="Arial" font-size="12.00"  text-anchor="middle">
		<text><tspan font-family="Arial" > 10</tspan></text>
	</g>
</g>
<g fill="none" color="black" stroke="currentColor" stroke-width="1.00" stroke-linecap="butt" stroke-linejoin="miter">
	<path stroke='black'  d='M154.0,428.0 L154.0,419.0 M154.0,18.1 L154.0,27.1  '/>	<g transform="translate(154.0,449.9)" stroke="none" fill="black" font-family="Arial" font-size="12.00"  text-anchor="middle">
		<text><tspan font-family="Arial" > 20</tspan></text>
	</g>
</g>
<g fill="none" color="black" stroke="currentColor" stroke-width="1.00" stroke-linecap="butt" stroke-linejoin="miter">
	<path stroke='black'  d='M212.4,428.0 L212.4,419.0 M212.4,18.1 L212.4,27.1  '/>	<g transform="translate(212.4,449.9)" stroke="none" fill="black" font-family="Arial" font-size="12.00"  text-anchor="middle">
		<text><tspan font-family="Arial" > 30</tspan></text>
	</g>
</g>
<g fill="none" color="black" stroke="currentColor" stroke-width="1.00" stroke-linecap="butt" stroke-linejoin="miter">
	<path stroke='black'  d='M270.7,428.0 L270.7,419.0 M270.7,18.1 L270.7,27.1  '/>	<g transform="translate(270.7,449.9)" stroke="none" fill="black" font-family="Arial" font-size="12.00"  text-anchor="middle">
		<text><tspan font-family="Arial" > 40</tspan></text>
	</g>
</g>
<g fill="none" color="black" stroke="currentColor" stroke-width="1.00" stroke-linecap="butt" stroke-linejoin="miter">
	<path stroke='black'  d='M329.1,428.0 L329.1,419.0 M329.1,18.1 L329.1,27.1  '/>	<g transform="translate(329.1,449.9)" stroke="none" fill="black" font-family="Arial" font-size="12.00"  text-anchor="middle">
		<text><tspan font-family="Arial" > 50</tspan></text>
	</g>
</g>
<g fill="none" color="black" stroke="currentColor" stroke-width="1.00" stroke-linecap="butt" stroke-linejoin="miter">
	<path stroke='black'  d='M387.4,428.0 L387.4,419.0 M387.4,18.1 L387.4,27.1  '/>	<g transform="translate(387.4,449.9)" stroke="none" fill="black" font-family="Arial" font-size="12.00"  text-anchor="middle">
		<text><tspan font-family="Arial" > 60</tspan></text>
	</g>
</g>
<g fill="none" color="black" stroke="currentColor" stroke-width="1.00" stroke-linecap="butt" stroke-linejoin="miter">
	<path stroke='black'  d='M445.8,428.0 L445.8,419.0 M445.8,18.1 L445.8,27.1  '/>	<g transform="translate(445.8,449.9)" stroke="none" fill="black" font-family="Arial" font-size="12.00"  text-anchor="middle">
		<text><tspan font-family="Arial" > 70</tspan></text>
	</g>
</g>
<g fill="none" color="black" stroke="currentColor" stroke-width="1.00" stroke-linecap="butt" stroke-linejoin="miter">
	<path stroke='black'  d='M504.1,428.0 L504.1,419.0 M504.1,18.1 L504.1,27.1  '/>	<g transform="translate(504.1,449.9)" stroke="none" fill="black" font-family="Arial" font-size="12.00"  text-anchor="middle">
		<text><tspan font-family="Arial" > 80</tspan></text>
	</g>
</g>
<g fill="none" color="black" stroke="currentColor" stroke-width="1.00" stroke-linecap="butt" stroke-linejoin="miter">
	<path stroke='black'  d='M562.5,428.0 L562.5,419.0 M562.5,18.1 L562.5,27.1  '/>	<g transform="translate(562.5,449.9)" stroke="none" fill="black" font-family="Arial" font-size="12.00"  text-anchor="middle">
		<text><tspan font-family="Arial" > 90</tspan></text>
	</g>
</g>
<g fill="none" color="black" stroke="currentColor" stroke-width="1.00" stroke-linecap="butt" stroke-linejoin="miter">
</g>
<g fill="none" color="black" stroke="currentColor" stroke-width="1.00" stroke-linecap="butt" stroke-linejoin="miter">
	<path stroke='black'  d='M37.3,18.1 L37.3,428.0 L615.0,428.0 L615.0,18.1 L37.3,18.1 Z  '/></g>
<g fill="none" color="black" stroke="currentColor" stroke-width="1.00" stroke-linecap="butt" stroke-linejoin="miter">
</g>
	<g id="gnuplot_plot_1" ><title>pages+cached+noexternal+nofonts</title>
<g fill="none" color="black" stroke="currentColor" stroke-width="1.00" stroke-linecap="butt" stroke-linejoin="miter">
	<g transform="translate(425.4,467.9)" stroke="none" fill="black" font-family="Arial" font-size="12.00"  text-anchor="end">
		<text><tspan font-family="Arial" >pages+cached+noexternal+nofonts</tspan></text>
	</g>
</g>
<g fill="none" color="black" stroke="currentColor" stroke-width="1.00" stroke-linecap="butt" stroke-linejoin="miter">
	<path stroke='rgb(148,   0, 211)'  d='M433.7,464.0 L475.9,464.0 M37.3,420.1 L43.1,388.3 L49.0,386.5 L54.8,385.9 L60.6,384.2 L66.5,376.2
		L72.3,374.9 L78.1,373.9 L84.0,373.6 L89.8,372.6 L95.7,370.5 L101.5,369.7 L107.3,369.4 L113.2,367.9
		L119.0,366.7 L124.8,363.8 L130.7,363.3 L136.5,359.0 L142.3,358.0 L148.2,357.5 L154.0,357.1 L159.8,355.6
		L165.7,355.4 L171.5,354.7 L177.3,354.5 L183.2,354.4 L189.0,353.8 L194.9,350.3 L200.7,350.1 L206.5,350.1
		L212.4,349.6 L218.2,349.5 L224.0,348.6 L229.9,347.8 L235.7,347.3 L241.5,345.2 L247.4,344.5 L253.2,344.1
		L259.0,344.1 L264.9,343.9 L270.7,343.3 L276.5,343.1 L282.4,342.6 L288.2,342.4 L294.1,340.9 L299.9,340.6
		L305.7,340.2 L311.6,339.3 L317.4,339.2 L323.2,338.3 L329.1,338.0 L334.9,337.1 L340.7,336.8 L346.6,335.8
		L352.4,335.6 L358.2,335.6 L364.1,334.9 L369.9,334.4 L375.8,332.4 L381.6,331.4 L387.4,330.8 L393.3,329.8
		L399.1,327.0 L404.9,326.3 L410.8,325.0 L416.6,324.3 L422.4,324.2 L428.3,322.8 L434.1,322.5 L439.9,321.4
		L445.8,320.5 L451.6,319.6 L457.4,319.4 L463.3,317.8 L469.1,317.6 L475.0,317.6 L480.8,316.8 L486.6,316.6
		L492.5,316.2 L498.3,315.0 L504.1,314.9 L510.0,314.6 L515.8,313.6 L521.6,313.2 L527.5,310.8 L533.3,310.6
		L539.1,310.3 L545.0,306.4 L550.8,302.1 L556.6,302.0 L562.5,299.0 L568.3,298.9 L574.2,298.4 L580.0,295.7
		L585.8,290.9 L591.7,285.5 L597.5,278.7 L603.3,276.0 L609.2,263.3 L615.0,259.2  '/></g>
	</g>
	<g id="gnuplot_plot_2" ><title>pages+cached+noexternal+nosvg</title>
<g fill="none" color="black" stroke="currentColor" stroke-width="1.00" stroke-linecap="butt" stroke-linejoin="miter">
	<g transform="translate(425.4,485.9)" stroke="none" fill="black" font-family="Arial" font-size="12.00"  text-anchor="end">
		<text><tspan font-family="Arial" >pages+cached+noexternal+nosvg</tspan></text>
	</g>
</g>
<g fill="none" color="black" stroke="currentColor" stroke-width="1.00" stroke-linecap="butt" stroke-linejoin="miter">
	<path stroke='rgb(  0, 158, 115)'  d='M433.7,482.0 L475.9,482.0 M37.3,350.6 L43.1,301.5 L49.0,287.4 L54.8,286.3 L60.6,285.8 L66.5,283.1
		L72.3,272.9 L78.1,269.0 L84.0,267.9 L89.8,266.3 L95.7,265.9 L101.5,258.5 L107.3,255.3 L113.2,253.1
		L119.0,248.4 L124.8,246.7 L130.7,245.3 L136.5,240.0 L142.3,239.4 L148.2,239.3 L154.0,238.7 L159.8,234.5
		L165.7,230.8 L171.5,229.8 L177.3,228.1 L183.2,227.8 L189.0,227.4 L194.9,226.3 L200.7,225.9 L206.5,224.0
		L212.4,223.4 L218.2,222.9 L224.0,221.1 L229.9,220.8 L235.7,220.8 L241.5,218.1 L247.4,218.1 L253.2,213.3
		L259.0,213.2 L264.9,212.4 L270.7,211.3 L276.5,209.8 L282.4,208.1 L288.2,206.8 L294.1,205.6 L299.9,204.5
		L305.7,204.4 L311.6,202.1 L317.4,200.4 L323.2,199.8 L329.1,198.2 L334.9,197.9 L340.7,197.7 L346.6,195.7
		L352.4,195.3 L358.2,190.9 L364.1,190.9 L369.9,190.1 L375.8,190.0 L381.6,189.8 L387.4,189.5 L393.3,186.0
		L399.1,183.1 L404.9,182.0 L410.8,181.4 L416.6,179.1 L422.4,177.0 L428.3,176.8 L434.1,175.0 L439.9,173.5
		L445.8,170.3 L451.6,169.4 L457.4,168.4 L463.3,168.1 L469.1,166.7 L475.0,156.8 L480.8,156.7 L486.6,156.6
		L492.5,156.3 L498.3,155.3 L504.1,153.8 L510.0,151.9 L515.8,148.2 L521.6,146.4 L527.5,144.4 L533.3,142.0
		L539.1,134.5 L545.0,126.9 L550.8,123.0 L556.6,117.7 L562.5,107.5 L568.3,105.1 L574.2,99.3 L580.0,96.0
		L585.8,91.0 L591.7,88.1 L597.5,68.2 L603.3,59.7 L609.2,59.1 L615.0,26.0  '/></g>
	</g>
<g fill="none" color="#FFFFFF" stroke="rgb(  0, 158, 115)" stroke-width="2.00" stroke-linecap="butt" stroke-linejoin="miter">
</g>
<g fill="none" color="black" stroke="currentColor" stroke-width="2.00" stroke-linecap="butt" stroke-linejoin="miter">
</g>
<g fill="none" color="black" stroke="black" stroke-width="1.00" stroke-linecap="butt" stroke-linejoin="miter">
</g>
<g fill="none" color="black" stroke="currentColor" stroke-width="1.00" stroke-linecap="butt" stroke-linejoin="miter">
	<path stroke='black'  d='M37.3,18.1 L37.3,428.0 L615.0,428.0 L615.0,18.1 L37.3,18.1 Z  '/></g>
<g fill="none" color="black" stroke="currentColor" stroke-width="1.00" stroke-linecap="butt" stroke-linejoin="miter">
</g>
</g>
</svg>
